X:1
T:Laudate Pueri
T:Felix Mendelssohn op. 39 no. 2 edit BMarble
T:Laudate Pueri
T:Copyright © 2015 by CPDL.  This edition can be fully distributed, duplicated, performed, and recorded. 
T:Copyright © 2015 by CPDL.  This edition can be fully distributed, duplicated, performed, and recorded. 
T:Copyright © 2015 by CPDL.  This edition can be fully distributed, duplicated, performed, and recorded. 
T:Copyright © 2015 by CPDL.  This edition can be fully distributed, duplicated, performed, and recorded. 
T:Copyright © 2015 by CPDL.  This edition can be fully distributed, duplicated, performed, and recorded. 
T:Copyright © 2015 by CPDL.  This edition can be fully distributed, duplicated, performed, and recorded. 
T:Copyright © 2015 by CPDL.  This edition can be fully distributed, duplicated, performed, and recorded. 
T:Copyright © 2015 by CPDL.  This edition can be fully distributed, duplicated, performed, and recorded. 
T:Copyright © 2015 by CPDL.  This edition can be fully distributed, duplicated, performed, and recorded. 
T:Copyright © 2015 by CPDL.  This edition can be fully distributed, duplicated, performed, and recorded. 
T:Copyright © 2015 by CPDL.  This edition can be fully distributed, duplicated, performed, and recorded. 
C:Felix Mendelssohn op. 39 no. 2
C:edit BMarble
Z:Copyright © 2015 by CPDL.  This edition can be fully distributed, duplicated, performed, and recorded.
Z:
%%score [ 1 2 3 ] { ( 4 7 8 ) | ( 5 6 ) }
L:1/8
Q:1/4=120
M:4/4
K:Eb
V:1 treble nm="Soprano" snm="S."
V:2 treble nm="Mezzo-soprano" snm="S."
V:3 treble nm="Alto" snm="A."
V:4 treble nm="Organ" snm="Org."
V:7 treble 
V:8 treble 
V:5 bass 
V:6 bass 
V:1
 z8 | z8 | z8 | z8 | z8 | z8 | z8 | z8 | z8 | z8 | z8 | z8 | z8 | z8 | z8 | z2 A2 c2 d2 | e3 e e4 | %17
w: |||||||||||||||Lau- da- te|pu- e- ri|
 f6 f2 | f4 z2 f2 | B2 c2 d2 f2 | f3 e e4 | e2 d2 c3 c | B4 z2 B2 | c2 d2 e2 f2 | d3 c B4 | %25
w: Do- mi-|num; lau-|da- te no- men|Do- mi- ni,|no- men Do- mi-|ni, lau-|da- te no- men|Do- mi- ni,|
 z2 B2 f4- | f2 e4 d2 | e2 d2 c2 B2 | =A2 B4 B2 | =A6 A2 | (G2 =A2) B4 | =A4 z2 A2 | B6 =A2 | G8 | %34
w: lau- da-|||* * te|no- men|Do- * mi-|ni, lau-|da- te|no-|
 F4 z2 =A2 | B2 c2 d2 f2 | f3 e e4 | e2 d2 c3 c | B4 z2 d2 | g4 d4 | e4 d4 | c4 c2 c2 | %42
w: men, lai-|da- te no- men|Do- mi- ni,|no- men Do- mi|ni. Sit|no- men|Do- mi-|ni be- ne-|
 (=B2 c2) d2 G2 | c4 B2 A2 | G4 c2 e2 | g6 f2 | e4 z2 G2 | c4 G4 | A4 G4 | A4 A2 A2 | %50
w: di- * ctum ex|hoc nunc et|us- que in|sae- cu-|la, Sit|no- men|Do- mi-|ni be- ne-|
 (G2 A2) B2 G2 | e4 d2 d2 | c4 B2 G2 | e4 d4 | c4 z2 e2 | d4 B2 =A2 | G4 c2 =A2 | B4 =A4 | %58
w: di- * ctum ex|hoc nunc et|us- que in|sae- cu-|la, ex|hoc nunc et|us- que in|sae- cu-|
 G4 z2 d2 | =e4 ^f2 d2 | (g4 f2 e2 | d6) d2 | G4 z4 | z8 | z8 | z8 | z8 | z4 z2 A2 | e4 B4 | %69
w: la, et|us- que in|sae- * *|* cu-|la.|||||Sit|no- men|
 c4 B4 | c4 c2 c2 | (B6 A2) | G2 B2 e2 f2 | g8- | g2 c2 f4 | z4 z2 f2 | (B2 c2 d2) f2 | f3 e e4 | %78
w: Do- mi-|ni be- ne-|di- *|ctum, lau- da- te|Do-|* mi- num,|lau-|da- * * te|pu- e- ri,|
 z4 z2 e2 | (d2 c2) B2 A2 | G2 A2 B2 _d2 | _d3 c c2 B2 | =A2 B2 c2 e2 | e3 d d4 | z4 z2 B2 | %85
w: lau-|da- * te, lau-|da- te no- men|Do- mi- ni, lau-|da- te no- men|Do- mi- ni.|Sit|
 g4 d4 | e4 d4 | c4 c2 c2 | B4 B2 B2 | e4 d2 B2 | c4 B2 G2 | B6 A2 | G4 z2 B2 | g4 f2 d2 | %94
w: no- men|Do- mi-|ni be- ne-|di- ctum ex|hoc nunc et|us- que in|sae- cu-|la, ex|hoc nunc et|
 e4 c2 f2 | e8- | (e4 d3) e | e8- | e8- | e8- | e8 | z2 c2 f2 e2 | d8- | d4 z2 B2 | e4 B2 G2 | %105
w: us- que in|sae-|* * cu-|la,|_|||in sae- cu-|la,|_ ex|hoc nunc et|
 B4 A2 G2 | (G8 | F6) E2 | E8 |] %109
w: us- que in|sae-|* cu-|la.|
V:2
 z8 | z8 | z8 | z8 | z8 | z8 | z8 | z8 | z8 | z8 | z8 | z8 | z8 | z2 E2 G2 A2 | B3 B B4 | c6 c2 | %16
w: |||||||||||||Lau- da- te|pu- e- ri|Do- mi-|
 B4 z2 B2 | c2 d2 e2 e2 | e3 d d2 c2 | B6 A2 | (G4 c2) B2 | (=A2 B4) A2 | B4 z4 | z8 | %24
w: num; lau-|da- te no- men|Do- mi- ni, lau-|da- te|no- * men|Do- * mi-|ni,||
 z2 B2 e2 e2 | e3 d d4- | (d4 c2) =B2 | c2 d2 e4- | e2 d2 f2 ed | c2 d2 e2 dc | B2 c2 d2 e2- | %31
w: Lau- da- te|pu- e- ri,|_ _ lau-|da- * *||||
 e2 d2 c2 c2 | d2 e2 f4 | B2 d2 c2 B2 | =A2 B2 e4- | (e4 d2) c2 | B3 B B4 | =A2 B2 A3 A | %38
w: * * te, lau-|da- * *||* te no-|* * men|Do- mi- ni,|no- men Do- mi|
 B4 z2 B2 | d4 B4 | c4 B4 | A4 A2 A2 | G4 G2 G2 | G4 G2 F2 | E4 G2 c2 | e6 d2 | c4 z2 G2 | c4 G4 | %48
w: ni. Sit|no- men|Do- mi-|ni be- ne-|di- ctum ex|hoc nunc et|us- que in|sae- cu-|la, Sit|no- men|
 A4 G4 | A4 A2 A2 | (G2 A2) B4 | z4 z2 G2 | e4 d2 d2 | c4 B2 G2 | e4 e4 | =A4 z2 d2 | g4 e2 e2 | %57
w: Do- mi-|ni be- ne-|di- * ctum|ex|hoc nunc et|us- que in|sae- cu-|la, et|us- que in|
 d6 c2 | B4 z2 d2 | ^c4 =c2 c2 | (B2 c2) d2 e2 | (B4 =A3) A | G4 z4 | z8 | z8 | z8 | z8 | %67
w: sae- cu-|la, et|us- que, et|us- * que in|sae- * cu-|la.|||||
 z4 z2 A2 | G4 G4 | A3 E E4 | z8 | z2 B2 c2 d2 | e3 e e4 | _d6 d2 | c4 z2 B2 | A2 B2 c2 e2 | %76
w: Lau-|da- te|pu- e- ri,||Lau- da- te|pu- e- ri|Do- mi-|num; lau-|da- te no- men|
 e3 d d4 | z4 z2 B2 | e2 d2 c2 B2 | A3 G F4 | z4 B4- | B3 B G4 | z4 c4- | c3 c =A2 c2 | %84
w: Do- mi- ni,|lau-|da- te no- men|Do- mi- ni,|Do-|* mi- ni,|Do-|* mi- ni, sit|
 (B2 c2) d2 f2 | B4 B4 | e4 B4 | A4 A2 A2 | A4 G2 B2 | c4 B2 B2 | A4 G2 G2 | F6 F2 | G4 z2 B2 | %93
w: no- * men, sit|no- men|Do- mi-|ni be- ne-|di- ctum ex|hoc nunc et|us- que in|sae- cu-|la, ex|
 e4 B2 B2 | B4 c4 | (e2 d2) c2 B2 | A6- AA | G4 z4 | z8 | z2 E2 G2 A2 | B3 B B4 | =A6 c2 | F8- | %103
w: hoc nunc et|us- que,|us- * que in|sae- * cu-|la.||Lau- da- te|pu- e- ri|Do- mi-|num;|
 F4 z2 D2 | B4 G2 G2 | G4 F2 E2 | E8- | E4 D4 | E8 |] %109
w: _ ex|hoc nunc et|us- que in|sae-|* cu-|la.|
V:3
 z8 | z8 | z8 | z8 | z8 | z8 | z2 E2 G2 A2 | B3 B B4 | c6 c2 | B4 z2 B2 | E2 F2 G2 B2 | B3 A A4 | %12
w: ||||||Lau- da- te|pu- e- ri|Do- mi-|num; lau-|da- te no- men|Do- mi- ni,|
 A2 G2 F3 F | E8 | z2 E2 F2 G2 | A3 A A4 | G2 E2 F2 G2 | A4 =A4 | B2 F2 B2 _A2 | G4 F2 D2 | %20
w: no- men Do- mi-|ni,|Lau- da- te|pu- e- ri|Do- mi- num. lau-|da- *|||
 E2 D2 C4- | C2 D2 E2 F2 | D2 F2 B2 B2 | B3 A A4- | (A4 G2) E2 | F2 G2 A2 B2 | G3 G G4 | z8 | %28
w: ||te, lau- da- te|pu- e- ri,|_ _ lau-|da- te no- men|Do- mi- ni,||
 z2 B,2 D2 E2 | F3 F F4 | G6 G2 | F4 z2 F2 | B,2 C2 D2 F2 | F3 E E4 | E2 D2 C3 C | B,4 B2 =A2 | %36
w: lau- da- te|pu- e- ri|Do- mi-|num; lau-|da- te no- men|Do- mi- ni,|no- men Do- mi-|ni, no- men|
 G3 C C4 | F2 B2 F3 E | D4 z2 B2 | B4 G4 | G6 G2 | G4 F2 F2 | (F2 E2) D2 G2 | E4 C2 D2 | E4 E2 G2 | %45
w: Do- mi- ni,|no- men Do- mi|ni. Sit|no- men|Do- mi-|ni be- ne-|di- * ctum ex|hoc nunc et|us- que in|
 c4 G4 | C4 z2 G2 | c4 G4 | A4 G4 | A4 A2 A2 | (G2 A2) B4 | z4 z2 G2 | c4 G4 | z4 z2 G2 | c6 c2 | %55
w: sae- cu-|la, sit|no- men|Do- mi-|ni be- ne-|di- * ctum|ex|hoc nunc|in|sae- cu-|
 ^F4 z2 c2 | B4 =A2 G2 | G4 ^F4 | G4 z2 D2 | =A4 A2 A2 | (G2 =A2) B2 G2 | (G4 ^F3) F | G4 z4 | z8 | %64
w: la, et|us- que in|sae- cu-|la, et|us- que, et|us- * que in|sae- * cu-|la.||
 z8 | z2 D2 G2 _A2 | B3 B B4 | c6 c2 | B4 z2 B2 | E2 F2 G2 B2 | B3 A A4 | A2 G2 F3 F | E4 z2 B,2 | %73
w: |Lau- da- te|pu- e- ri|Do- mi-|num; lau-|da- te no- men|Do- mi- ni,|no- men Do- mi-|ni, lau-|
 E2 F2 G2 B2 | B3 A A2 G2 | F4 F2 F2 | B4 F4 | G4 G4 | (c2 B2) A2 G2 | (F2 E2) D2 D2 | E2 F2 G4- | %81
w: da- te no- men|Do- mi- ni, lau-|da- te. Sit|no- men|Do- mi-|ni _ be- ne-|di- * ctum Lau-|da- te pu-|
 G2 F2 =E2 E2 | F2 G2 =A4- | A2 G2 ^F2 F2 | (G2 =A2 B4-) | B4 _A4 | G4 G4 | G4 F2 E2 | D4 E2 F2 | %89
w: * e- ri, lau-|da- te pu-|* e- ri, sit|no- * *|* men|Do- mi-|ni be- ne-|di- ctum ex|
 G4 G2 G2 | E4 E2 E2 | F4 D4 | E2 G2 B4 | =A4 _A4 | G4 F2 A2 | (G2 B2 A2 G2 | F6) F2 | E4 z4 | z8 | %99
w: hoc nunc et|us- que in|sae- cu-|la, ex hoc|nunc et|us- que in|sae- * * *|* cu-|la.||
 z2 E2 G2 A2 | B3 B B4 | c6 c2 | B8- | B4 z2 F2 | G4 G2 E2 | E4 C2 A,2 | B,8- | B,4 B,4 | E8 |] %109
w: Lau- da- te|pu- e- ri|Do- mi-|num;|_ ex|hoc nunc et|us- que in|sae-|* cu-|la.|
V:4
 z8 | z2 E2 D2 F2 | E2 [DF]2 [EG]2 [FB]2 | B4 A4- | [DA]2 [EG]2 [CF]2 [B,E]2 | E4 D4 | E8- | %7
 E2- [EG]2 [DF]2 [B,E]2 | [A,C]2 [B,D]2 [CE]2 [DF]2 | [EG]2 E2 D2 [DF]2 | [B,E]6 [G,_D]2 | %11
 C2 G2 F2 E2 | A2 G2 F4 | [G,E]4 [EG]2 [FA]2 | B8 | c2 A2 c2 d2 | [Be]8 | f8- | [ef]4 d2 _A2 | %19
 G4 F2 D2 | E2 D2 C4- | C2 D2 E2 F2 | D2 F2 B4- | c8 | B8 | z4 [df-]4 | f2 e4 d2 | e2 d2 e4- | %28
 e2 d2 f2 ed | c2 d2 e2 dc | B2 c2 d2 e2- | e2 d2 c2 c2 | d2 e2 f4 | B2 d2 c2 B2 | F4 e4- | %35
 e4 d2 f2 | f4 [ce]4- | [ce]2 d2 [=Ac]4 | DFd=A BFDB,- | B,DGB- BDGB | EGce DGBd | CGAc DFAc | %42
 DFGc DFG=B | CEGc CDFA | EGe=B cGEC | G,CEG G,=B,DG | G,CE=B, CEGF | =EGc=e GBcg | Acfa Gceg | %49
 Acea fdBA | GeBA GBeg | Gceg- gdBG- | Gceg- gdBG- | Gceg- gdBG- | Gced cB=AG | ^F=Acd DFcd | %56
 GB=AG ^FGAc | BdBG D^F=Ad- | dDB^F =GDdG | =e^c=AG ^FA=c^f | g4 f2 e2 | d4 d4- | dBce dB=AG | %63
 ^FG=Ac DFAc- | c^FGB- BDF=A- | AD^FG B,GDB, | DEGB _DGED | CEAc =DFAc | EGBG e2 B2 | E2 F2 G2 B2 | %70
 B3 A A4- | A2 G2 F2 A2 | [B,EG]2 B2 e2 B2 | [B_d]8 | [Bc]4 [Af]2 [GB]2 | %75
 [FA]2 [GB]2 [Ac]2 [=Ae]2 | e4 d2 f2 | f4 e4- | [ce]2 [Bd]2 [Ac]2 [GBe]2 | [FAd]2 [Ec]2 B2 A2 | %80
 G2 A2 B2 _d2- | [Bd]4 c2 B2 | =A2 B2 c2 e2- | [ce]4 d2 c2 | [GB]2 [=Ac]2 [B-d]2 [_ABf]2 | %85
 GBeg ABdf | EGce EGBd | EGAc FAcE | DFBA GBFB | EGce DGBd | CEAc B,EGB | B,EFB DFBA | GBGE B,EGB | %93
 =Aceg _ABfd | GBed cAcf | GedB cAGB | FABe dBAF | EGEC G,CEG | _DGED G,DEG | CAEC DECE | %100
 B,EGB GEB,E | =A,EF=A FAce | dfdB Fd-B-F- | [DFBd]4 z2 [DFB-]2 | [Be]4 B2 G2- | %105
 [GB]4 [FA]2 [EG]2 | G8 | F8 | [G,B,E]8 |] %109
V:5
!p! z2 [E,G,]2 [D,F,]2 [F,A,]2 | [E,G,]2 G,2 F,2 A,2 | G,4 E,2 D,2 | C8- | C2 B,2 A,2 G,2 | %5
 A,2 C2 B,2 A,2 | [E,G,]8- | [E,G,]2 B,2 A,2 G,2 | A,,8 | z2 G,2 F,2 z2 | G,,4 E,,4 | E,4 F,4- | %12
 F,2 G,2 A,2 B,2 | E,,8- | E,,8- | E,,8- | E,,8 | z4 C,4 | B,,8 | z8 | z8 | [F,,F,]8 | %22
 [B,,,B,,]8- | [B,,,B,,]8- | [B,,,B,,]8- | [B,,,B,,]8 | z4 z2 G,2 | C2 _B,2 =A,2 C2 | %28
 F,2 B,2 D2 E2 | F6 F2 | G6 G2 | F4 z2 F2 | B,2 C2 D2 F2 | F4 E4- | E2 D2 C4 | B,4 [F,,F,]4 | %36
 [G,,G,]4 [C,,C,]4 | [F,,F,]2 z2 z2 F,,2 | B,,4 z4 | [G,,G,]8 | [C,C]4 [G,,G,]4 | %41
 [A,,A,]4 [D,,D,]4 | [G,,G,]4 z4 | [E,,E,]4 [F,,F,]4 | [G,,G,]8 | [G,,,G,,]8 | [C,,C,]4 z2 G,,2 | %47
 [C,,C,]4 [=E,,=E,]4 | [F,,F,]4 [C,,C,]4- | [C,,C,]4 [D,,D,]4 | [E,,E,]4 z2 G,,2 | C,4 G,,4 | %52
 z4 G,,4 | C,4 G,,4 | z4 [C,,C,]4 | [D,,D,]4 z2 [D,,D,]2 | [E,,E,]4 [C,,C,]4 | [D,,D,]4 D,4 | %58
 [G,,G,]4 [B,,B,]4 | [=A,,=A,]4 [D,,D,]4 | [E,,E,]4 [B,,,B,,]2 [C,,C,]2 | [D,,D,]6 D,2 | %62
 G,,2 =A,,2 B,,2 C,2 | D,2 E,2 ^F,,2 D,2 | G,,4 [D,,D,]4 | G,,4 z4 | E,,6 G,,2 | z4 A,4 | %68
 [E,,E,]4 z4 | z4 [E,,E,]4 | A,,8 | B,,8 | E,4 z4 | [E,,E,]8 | A,,4 z4 | z4 F,,4 | [B,,,B,,]8- | %77
 [B,,,B,,]8- | [B,,,B,,]8- | [B,,,B,,]8- | [B,,,B,,]8- | [B,,,B,,]4 [C,,C,]4- | [C,,C,]8- | %83
 [C,,C,]4 [D,,D,]4- | [D,,D,]4 [D,,D,]4 | [E,,E,]4 [B,,,B,,]4 | [C,,C,]4 [G,,,G,,]4 | [A,,,A,,]8 | %88
 [B,,,B,,]4 [E,,E,]2 [D,,D,]2 | [C,,C,]4 G,,4 | A,,4 B,,4- | [B,,,B,,]8 | [E,,E,]6 [D,,D,]2 | %93
 [C,,C,]4 [D,,D,]2 [B,,,B,,]2 | [E,,E,]4 [A,,,A,,]4 | [B,,,B,,]8- | [B,,,B,,]4 [B,,,B,,]4 | %97
 [C,,C,]8 | [B,,,B,,]8 | [A,,,A,,]8 | [G,,,G,,]8 | [F,,,F,,]8 | [_A,,,-_A,,]8 | %103
 [A,,,A,,]4 z2 [A,,A,]2 | [G,,G,]4 [E,,E,]4 | [C,,C,]4 [F,,F,]4 | [B,,,B,,]8- | [B,,,B,,]8 | %108
 [E,,E,]8 |] %109
V:6
 E,,8- | E,,8- | E,,4 x4 | C,4 F,,4 | B,,8- | [B,,F,]8 | E,,8- | E,,4 F,,2 G,,2 | x8 | E,4 B,,4 | %10
 x8 | A,,8 | B,,8 | x8 | x8 | x8 | x8 | x8 | x8 | x8 | x8 | x8 | x8 | x8 | x8 | x8 | x8 | x8 | x8 | %29
 x8 | x8 | x8 | x8 | x8 | x8 | x8 | x8 | x8 | x8 | x8 | x8 | x8 | x8 | x8 | x8 | x8 | x8 | x8 | %48
 x8 | x8 | x8 | x8 | x8 | x8 | x8 | x8 | x8 | x8 | x8 | x8 | x8 | x8 | x8 | x8 | x8 | x8 | x8 | %67
 A,,8 | x8 | x8 | x8 | x8 | x8 | x8 | x8 | x8 | x8 | x8 | x8 | x8 | x8 | x8 | x8 | x8 | x8 | x8 | %86
 x8 | x8 | x8 | x8 | x8 | x8 | x8 | x8 | x8 | x8 | x8 | x8 | x8 | x8 | x8 | x8 | x8 | x8 | x8 | %105
 x8 | x8 | x8 | x8 |] %109
V:7
 x8 | x2 B,6- | B,8 | E2 G2 F2 E2 | x8 | x8 | x8 | x8 | x8 | B,8 | x8 | x8 | =D2 E4 D2 | x8 | %14
 G2 E2 F2 G2 | A8 | G2 E2 F2 G2 | A4 =A4 | B2 F2 B2 x2 | x8 | x8 | x8 | x8 | B4 A4- | A4 G4 | %25
 F2 G2 A4 | d4 c2 =B2 | c2 d2 c2 B2 | =A2 B6 | =A6 A2 | G2 =A2 B4 | c2 B2 =A2 A2 | B6 =A2 | G8 | %34
 =A2 B4 A2 | B2 c2 B2 [=Ac]2 | [GB]8 | =A2 B2 F2 E2 | x8 | x8 | x8 | x8 | x8 | x8 | x8 | x8 | x8 | %47
 x8 | x8 | x8 | x8 | x8 | x8 | x8 | x8 | x8 | x8 | x8 | x8 | x8 | [GB]2 [=Ac]2 [Bd]2 [Gc]2 | %61
 [GB]4 [^F=A]4 | x2 ^F2 G2 E2 | D2 C2 D4- | D4 C4 | B,4 x4 | _D4 x4 | C4 D4 | x8 | x4 [_DE-]4 | %70
 [CE]4 F2 E2 | =D2 E2 [B,-F]4 | x8 | E2 F2 G2 B2 | x8 | x8 | B2 c2 F4 | G6 G2 | x8 | z4 D4 | %80
 E2 F2 [GB]4- | G2 F2 [=EG]4 | F2 G2 [=Ac]4- | A2 G2 [^F=A]4 | x8 | x8 | x8 | x8 | x8 | x8 | x8 | %91
 x8 | x8 | x8 | x8 | x8 | x8 | x8 | x8 | x4 _D2 C2 | B,2 x6 | x8 | x8 | x8 | E4 E4 | E4 C4 | %106
 [B,E]8- | [B,E]4 [A,D]4 | x8 |] %109
V:8
 x8 | x8 | x8 | x8 | x8 | x8 | x8 | x8 | x8 | x8 | x8 | x8 | x8 | x8 | x8 | x8 | x8 | c2 d2 e4- | %18
 x8 | x8 | x8 | x8 | x8 | x8 | x8 | B8 | G8 | x8 | x8 | x8 | x8 | x8 | x8 | x8 | x8 | x8 | x8 | %37
 x8 | x8 | x8 | x8 | x8 | x8 | x8 | x8 | x8 | x8 | x8 | x8 | x8 | x8 | x8 | x8 | x8 | x8 | x8 | %56
 x8 | x8 | x8 | x8 | x8 | x8 | x8 | x8 | x8 | x8 | x8 | x8 | x8 | x8 | x8 | x8 | x8 | x8 | x8 | %75
 x8 | x8 | x8 | x8 | x8 | x8 | x8 | x8 | x8 | x8 | x8 | x8 | x8 | x8 | x8 | x8 | x8 | x8 | x8 | %94
 x8 | x8 | x8 | x8 | x8 | x8 | x8 | x8 | x8 | x8 | x8 | x8 | x8 | x8 | x8 |] %109

